svg/fluentui-system-icons/ic_fluent_tag_multiple_20_filled.svg

<svg width="20" height="20" viewBox="0 0 20 20" fill="none" xmlns="http://www.w3.org/2000/svg">
<path d="M2.99709 11.8001C2.73198 12.5111 2.88524 13.3427 3.45688 13.9143L6.43375 16.8912C7.9903 18.4478 10.512 18.4541 12.0764 16.9054L16.4801 12.5457C16.8595 12.1701 17.073 11.6583 17.073 11.1244V10.5522L12.0764 15.5053C12.0281 15.5531 11.9789 15.5994 11.9289 15.6442L11.3728 16.1947C10.1995 17.3563 8.30827 17.3515 7.14086 16.1841L6.64236 15.6856C6.5711 15.6237 6.50151 15.5589 6.43375 15.4911L3.45688 12.5143C3.24747 12.3049 3.09421 12.0606 2.99709 11.8001ZM9.20688 2.58579C9.58195 2.21071 10.0907 2 10.6211 2H15.073C16.1776 2 17.073 2.89543 17.073 4V8.37426C17.073 8.90818 16.8595 9.41993 16.4801 9.79556L10.6622 15.5553C9.88 16.3297 8.61915 16.3265 7.84088 15.5482L3.45688 11.1642C2.67583 10.3832 2.67583 9.11684 3.45688 8.33579L9.20688 2.58579ZM13.5 6.5C14.0523 6.5 14.5 6.05228 14.5 5.5C14.5 4.94772 14.0523 4.5 13.5 4.5C12.9477 4.5 12.5 4.94772 12.5 5.5C12.5 6.05228 12.9477 6.5 13.5 6.5Z" fill="#212121"/>
</svg>

<svg xmlns="http://www.w3.org/2000/svg" width="20" height="20"><path d="M2.997 11.8a2 2 0 0 0 .46 2.114l2.977 2.977a4 4 0 0 0 5.642.014l4.404-4.36a2 2 0 0 0 .593-1.42v-.573l-4.997 4.953a4.086 4.086 0 0 1-.147.14l-.556.55a3 3 0 0 1-4.232-.01l-.499-.5a4.047 4.047 0 0 1-.208-.194l-2.977-2.977a1.992 1.992 0 0 1-.46-.714Zm6.21-9.214A2 2 0 0 1 10.62 2h4.452a2 2 0 0 1 2 2v4.374a2 2 0 0 1-.593 1.422l-5.818 5.76a2 2 0 0 1-2.821-.008l-4.384-4.384a2 2 0 0 1 0-2.828l5.75-5.75ZM13.5 6.5a1 1 0 1 0 0-2 1 1 0 0 0 0 2Z"/></svg>
